X:1
T:Shoes and Stockings
M:C|
L:1/8
F:http://users.rcn.com/ladysmyth/tunes/Shoes%20and%20Stockings.abc	 2009-03-06
K:G
D2 \
|:"G"G2G2 B2B2 | "C"cBc2 "D"d4 | "G"G2G2 B2B2 | "D"ABAG FED2 |
| "G"G2G2 B2B2 | "C"cBc2 "D"d4 | "G"dedc "D"BGA2 | "G"G4 G2 :|
|: d2 \
| "G"g2g2 "D"a2a2 | "G"bab2 d4 | "C"c2c2 "G"B2B2 | "D"ABc2 d2g2- |
| "G"g2g2 "D"a2a2 | "G"bab2 d4 | "C"c2c2 "G"B2B2 | "D"AGF2 "G"G2 :|
